Adwaita++/apps/scalable/gmail-offline.svg

<svg height="128" overflow="scroll" viewBox="0 0 128 128" width="128" xmlns="http://www.w3.org/2000/svg" xmlns:xlink="http://www.w3.org/1999/xlink">
  <linearGradient id="SVGID_1_" gradientUnits="userSpaceOnUse" x1="14.001" x2="32" y1="30.744" y2="30.744">
    <stop offset="0" stop-color="#c8c8c8"/>
    <stop offset="1" stop-color="#cdcdcd"/>
  </linearGradient>
  <linearGradient id="SVGID_2_" gradientUnits="userSpaceOnUse" x1="28.664" x2="50" y1="36.447" y2="36.447">
    <stop offset="0" stop-color="#d9d9d9"/>
    <stop offset="1" stop-color="#e2e2e2"/>
  </linearGradient>
  <path d="m116.5 108h-105c-4.1425 0-7.5-3.3575-7.5-7.5v-75c0-4.1425 3.3575-7.5 7.5-7.5h105c4.1425 0 7.5 3.3575 7.5 7.5v75c0 4.1425-3.3575 7.5-7.5 7.5z" fill="#eaeaea"/>
  <path d="m19 108h-7.5c-4.1425 0-7.5-3.3575-7.5-7.5v-75c0-4.1425 3.3575-7.5 7.5-7.5 4.1425 0 7.5 3.3575 7.5 7.5z" fill="#456cde"/>
  <path d="m109 108h7.5c4.1425 0 7.5-3.3575 7.5-7.5v-75c0-4.1425-3.3575-7.5-7.5-7.5-4.1425 0-7.5 3.3575-7.5 7.5z" fill="#0030c1"/>
  <path d="m120.795 31.65c1.9375-1.3575 3.205-3.605 3.205-6.15 0-4.1425-3.3575-7.5-7.5-7.5-1.5975 0-3.08.5-4.295 1.35 0 0-48.2 35.0925-48.2 35.0925l-.005.0025-.005-.0025-48.2-35.0925c-1.215-.85-2.6975-1.35-4.295-1.35-4.1425 0-7.5 3.3575-7.5 7.5 0 2.545 1.2675 4.7925 3.205 6.15l-.2-.1475 56.995 41.4975" fill="#456cde"/>
  <path d="m120.998 31.503-56.998 41.497" fill="#de5145"/>
  <path d="m116.5 18c-1.5975 0-3.08.5-4.295 1.35 0 0-48.2 35.0925-48.2 35.0925l-.005.0025-.005-.0025-48.2-35.0925c-1.215-.85-2.6975-1.35-4.295-1.35z" fill="#efefef"/>
  <path d="m19.0025 43.47-12.64-12.52-.005.01c.265.25.5475.48.8475.69l-.2-.1475 12 8.7375-.0025 3.32" fill="#0030c1"/>
  <g transform="matrix(2.5 0 0 2.5 -16 -17)">
    <path d="m28.67 38.59-14.67 11.41v-25.94l14.66 14.53" fill="#e3e3e3"/>
    <path d="m28.67 38.59 3.33-2.59-18-13.1v1.16l14.66 14.53z" fill="url(#SVGID_1_)"/>
    <path d="m40.06 50h9.94v-27.11l-18 13.11-3.34 2.59z" fill="url(#SVGID_2_)"/>
  </g>
</svg>

<svg xmlns="http://www.w3.org/2000/svg" id="Layer_1" width="128" height="128" x="0" y="0" style="overflow:scroll" overflow="scroll" version="1.2" viewBox="0 0 128 128" xml:space="preserve">
 <path d="M 116.5,108 H 11.5 C 7.3575,108 4,104.6425 4,100.5 v -75 C 4,21.3575 7.3575,18 11.5,18 h 105 c 4.1425,0 7.5,3.3575 7.5,7.5 v 75 c 0,4.1425 -3.3575,7.5 -7.5,7.5 z" style="fill:#eaeaea"/>
 <path d="M 19,108 H 11.5 C 7.3575,108 4,104.6425 4,100.5 v -75 C 4,21.3575 7.3575,18 11.5,18 v 0 c 4.1425,0 7.5,3.3575 7.5,7.5 z" style="fill:#456cde"/>
 <path d="m 109,108 h 7.5 c 4.1425,0 7.5,-3.3575 7.5,-7.5 v -75 c 0,-4.1425 -3.3575,-7.5 -7.5,-7.5 v 0 c -4.1425,0 -7.5,3.3575 -7.5,7.5 z" style="fill:#0030c1"/>
 <path d="M 120.795,31.65 C 122.7325,30.2925 124,28.045 124,25.5 c 0,-4.1425 -3.3575,-7.5 -7.5,-7.5 -1.5975,0 -3.08,0.5 -4.295,1.35 0,0 -48.2,35.0925 -48.2,35.0925 L 64,54.445 63.995,54.4425 15.795,19.35 C 14.58,18.5 13.0975,18 11.5,18 7.3575,18 4,21.3575 4,25.5 c 0,2.545 1.2675,4.7925 3.205,6.15 L 7.005,31.5025 64,73" style="fill:#456cde"/>
 <line id="line10" x1="120.998" x2="64" y1="31.503" y2="73" style="fill:#de5145"/>
 <path d="m 116.5,18 c -1.5975,0 -3.08,0.5 -4.295,1.35 0,0 -48.2,35.0925 -48.2,35.0925 L 64,54.445 63.995,54.4425 15.795,19.35 C 14.58,18.5 13.0975,18 11.5,18 Z" style="fill:#efefef"/>
 <path d="m 19.0025,43.47 -12.64,-12.52 -0.005,0.01 c 0.265,0.25 0.5475,0.48 0.8475,0.69 l -0.2,-0.1475 12,8.7375 -0.0025,3.32" style="fill:#0030c1"/>
 <polyline id="polyline16" points="28.67 38.59 14 50 14 24.06 28.66 38.59" transform="matrix(2.5,0,0,2.5,-16,-17)" style="fill:#e3e3e3"/>
 <linearGradient id="SVGID_1_" x1="14.001" x2="32" y1="30.744" y2="30.744" gradientUnits="userSpaceOnUse">
  <stop style="stop-color:#C8C8C8" id="stop18" offset="0"/>
  <stop style="stop-color:#CDCDCD" id="stop20" offset="1"/>
 </linearGradient>
 <polygon id="polygon23" points="28.67 38.59 32 36 14 22.9 14 24.06 28.66 38.59" transform="matrix(2.5,0,0,2.5,-16,-17)" style="fill:url(#SVGID_1_)"/>
 <linearGradient id="SVGID_2_" x1="28.664" x2="50" y1="36.447" y2="36.447" gradientUnits="userSpaceOnUse">
  <stop style="stop-color:#D9D9D9" id="stop25" offset="0"/>
  <stop style="stop-color:#E2E2E2" id="stop27" offset="1"/>
 </linearGradient>
 <polygon id="polygon30" points="40.06 50 50 50 50 22.89 32 36 28.66 38.59" transform="matrix(2.5,0,0,2.5,-16,-17)" style="fill:url(#SVGID_2_)"/>
</svg>
